X:872
T:Dear Old Donegal
C:Joe Buchanan's Scottish Tome - Page 432.2
I:432 2
R:Two-step
Z:Carl Allison
L:1/8
M:6/8
K:D
"A7"A2 F | "D"D2 D DEF | "D"E2 D "D7"DFA | "G"B2 B G2 B | "D"A3 "A7"ABc |
"Bm"d2 d "F#m"c2 d | "Bm"B2 A "D"F2 D | "E7"F2 E E2 F | "A7"E3 A2 F |
"D"D2 D DEF | "D"E2 D DFA | "G"B2 B G2 B | "D"A3 "A7"ABc |
"Bm"d2 d "F#m"c2 d | "Bm"B2 A "D"F2 D | "E7"E2 D "A7"D2 E | "D"D3- "D7"D2 A |
"G"B2 B G2 B | "G"d2 d d2 B | "D"B2 A A2 F | "D"A3 A3 |
"D"A2 A A2 A | "G"B2 d "D"A2 F | "E7"F2 E E2 F | "A7"E3 A2 F |
"D"D2 D DEF | "D"E2 D "D7"DFA | "G"B2 B G2 B | "D"A3 ABc |
"Bm"d2 d "F#m"c2 d | "G"B2 A "D"F2 D | "E7"E2 D "A7"D2 E | "D"D3 |]
